images/16759172.svg

<?xml version="1.0" encoding="UTF-8"?>
<svg xmlns="http://www.w3.org/2000/svg" xmlns:xlink="http://www.w3.org/1999/xlink" width="300pt" height="300pt" viewBox="0 0 300 300" version="1.1">
<defs>
<g>
<symbol overflow="visible" id="glyph0-0">
<path style="stroke:none;" d="M 0.796875 2.828125 L 0.796875 -11.28125 L 8.796875 -11.28125 L 8.796875 2.828125 Z M 1.703125 1.9375 L 7.90625 1.9375 L 7.90625 -10.390625 L 1.703125 -10.390625 Z M 1.703125 1.9375 "/>
</symbol>
<symbol overflow="visible" id="glyph0-1">
<path style="stroke:none;" d="M 1.578125 -11.671875 L 3.703125 -11.671875 L 8.875 -1.90625 L 8.875 -11.671875 L 10.40625 -11.671875 L 10.40625 0 L 8.28125 0 L 3.109375 -9.765625 L 3.109375 0 L 1.578125 0 Z M 1.578125 -11.671875 "/>
</symbol>
<symbol overflow="visible" id="glyph0-2">
<path style="stroke:none;" d="M 1.578125 -11.671875 L 3.15625 -11.671875 L 3.15625 -6.890625 L 8.890625 -6.890625 L 8.890625 -11.671875 L 10.46875 -11.671875 L 10.46875 0 L 8.890625 0 L 8.890625 -5.5625 L 3.15625 -5.5625 L 3.15625 0 L 1.578125 0 Z M 1.578125 -11.671875 "/>
</symbol>
<symbol overflow="visible" id="glyph0-3">
<path style="stroke:none;" d="M 3.15625 -5.578125 L 3.15625 -1.296875 L 5.6875 -1.296875 C 6.53125 -1.296875 7.15625 -1.472656 7.5625 -1.828125 C 7.976562 -2.179688 8.1875 -2.71875 8.1875 -3.4375 C 8.1875 -4.164062 7.976562 -4.703125 7.5625 -5.046875 C 7.15625 -5.398438 6.53125 -5.578125 5.6875 -5.578125 Z M 3.15625 -10.375 L 3.15625 -6.859375 L 5.484375 -6.859375 C 6.253906 -6.859375 6.828125 -7 7.203125 -7.28125 C 7.585938 -7.570312 7.78125 -8.015625 7.78125 -8.609375 C 7.78125 -9.203125 7.585938 -9.644531 7.203125 -9.9375 C 6.828125 -10.226562 6.253906 -10.375 5.484375 -10.375 Z M 1.578125 -11.671875 L 5.609375 -11.671875 C 6.804688 -11.671875 7.726562 -11.421875 8.375 -10.921875 C 9.03125 -10.421875 9.359375 -9.707031 9.359375 -8.78125 C 9.359375 -8.070312 9.191406 -7.503906 8.859375 -7.078125 C 8.523438 -6.660156 8.035156 -6.398438 7.390625 -6.296875 C 8.171875 -6.128906 8.773438 -5.78125 9.203125 -5.25 C 9.628906 -4.71875 9.84375 -4.054688 9.84375 -3.265625 C 9.84375 -2.222656 9.488281 -1.414062 8.78125 -0.84375 C 8.070312 -0.28125 7.066406 0 5.765625 0 L 1.578125 0 Z M 1.578125 -11.671875 "/>
</symbol>
<symbol overflow="visible" id="glyph0-4">
<path style="stroke:none;" d="M 6.578125 -7.40625 C 6.421875 -7.5 6.242188 -7.566406 6.046875 -7.609375 C 5.859375 -7.660156 5.648438 -7.6875 5.421875 -7.6875 C 4.609375 -7.6875 3.984375 -7.421875 3.546875 -6.890625 C 3.117188 -6.359375 2.90625 -5.597656 2.90625 -4.609375 L 2.90625 0 L 1.453125 0 L 1.453125 -8.75 L 2.90625 -8.75 L 2.90625 -7.390625 C 3.207031 -7.921875 3.597656 -8.316406 4.078125 -8.578125 C 4.566406 -8.835938 5.15625 -8.96875 5.84375 -8.96875 C 5.945312 -8.96875 6.054688 -8.957031 6.171875 -8.9375 C 6.296875 -8.925781 6.429688 -8.910156 6.578125 -8.890625 Z M 6.578125 -7.40625 "/>
</symbol>
</g>
</defs>
<g id="surface46609">
<rect x="0" y="0" width="300" height="300" style="fill:rgb(100%,100%,100%);fill-opacity:1;stroke:none;"/>
<path style="fill:none;stroke-width:1.2;stroke-linecap:butt;stroke-linejoin:miter;stroke:rgb(0%,0%,0%);stroke-opacity:1;stroke-miterlimit:10;" d="M 119.371094 195.59375 L 85.695312 213.734375 "/>
<path style="fill:none;stroke-width:1.2;stroke-linecap:butt;stroke-linejoin:miter;stroke:rgb(0%,0%,0%);stroke-opacity:1;stroke-miterlimit:10;" d="M 111.734375 189.484375 L 84.792969 203.996094 "/>
<path style="fill:none;stroke-width:1.2;stroke-linecap:butt;stroke-linejoin:miter;stroke:rgb(0%,0%,0%);stroke-opacity:1;stroke-miterlimit:10;" d="M 120.496094 157.359375 L 119.371094 195.59375 "/>
<path style="fill:none;stroke-width:1.2;stroke-linecap:butt;stroke-linejoin:miter;stroke:rgb(0%,0%,0%);stroke-opacity:1;stroke-miterlimit:10;" d="M 85.695312 213.734375 L 69.421875 203.6875 "/>
<path style="fill:none;stroke-width:1.2;stroke-linecap:butt;stroke-linejoin:miter;stroke:rgb(0%,0%,100%);stroke-opacity:1;stroke-miterlimit:10;" d="M 69.421875 203.6875 L 53.148438 193.640625 "/>
<path style="fill:none;stroke-width:1.2;stroke-linecap:butt;stroke-linejoin:miter;stroke:rgb(0%,0%,100%);stroke-opacity:1;stroke-miterlimit:10;" d="M 53.148438 193.640625 L 53.710938 174.523438 "/>
<path style="fill:none;stroke-width:1.2;stroke-linecap:butt;stroke-linejoin:miter;stroke:rgb(0%,0%,0%);stroke-opacity:1;stroke-miterlimit:10;" d="M 53.710938 174.523438 L 54.277344 155.40625 "/>
<path style="fill:none;stroke-width:1.2;stroke-linecap:butt;stroke-linejoin:miter;stroke:rgb(0%,0%,100%);stroke-opacity:1;stroke-miterlimit:10;" d="M 62.257812 190.082031 L 62.707031 174.789062 "/>
<path style="fill:none;stroke-width:1.2;stroke-linecap:butt;stroke-linejoin:miter;stroke:rgb(0%,0%,0%);stroke-opacity:1;stroke-miterlimit:10;" d="M 62.707031 174.789062 L 63.160156 159.496094 "/>
<path style=" stroke:none;fill-rule:nonzero;fill:rgb(100%,100%,100%);fill-opacity:1;" d="M 47.148438 184.140625 L 59.148438 184.140625 L 59.148438 203.140625 L 47.148438 203.140625 Z M 47.148438 184.140625 "/>
<g style="fill:rgb(0%,0%,100%);fill-opacity:1;">
  <use xlink:href="#glyph0-1" x="47.148438" y="198.992188"/>
</g>
<path style="fill:none;stroke-width:1.2;stroke-linecap:butt;stroke-linejoin:miter;stroke:rgb(0%,0%,0%);stroke-opacity:1;stroke-miterlimit:10;" d="M 54.277344 155.40625 L 87.949219 137.265625 "/>
<path style="fill:none;stroke-width:1.2;stroke-linecap:butt;stroke-linejoin:miter;stroke:rgb(0%,0%,0%);stroke-opacity:1;stroke-miterlimit:10;" d="M 87.949219 137.265625 L 120.496094 157.359375 "/>
<path style="fill:none;stroke-width:1.2;stroke-linecap:butt;stroke-linejoin:miter;stroke:rgb(0%,0%,0%);stroke-opacity:1;stroke-miterlimit:10;" d="M 86.476562 146.933594 L 112.515625 163.007812 "/>
<path style="fill:none;stroke-width:1.2;stroke-linecap:butt;stroke-linejoin:miter;stroke:rgb(0%,0%,0%);stroke-opacity:1;stroke-miterlimit:10;" d="M 120.496094 157.359375 L 154.171875 139.21875 "/>
<path style="fill:none;stroke-width:1.2;stroke-linecap:butt;stroke-linejoin:miter;stroke:rgb(0%,0%,0%);stroke-opacity:1;stroke-miterlimit:10;" d="M 154.171875 139.21875 L 186.71875 159.3125 "/>
<path style="fill:none;stroke-width:1.2;stroke-linecap:butt;stroke-linejoin:miter;stroke:rgb(0%,0%,0%);stroke-opacity:1;stroke-miterlimit:10;" d="M 186.71875 159.3125 L 222.105469 144.792969 "/>
<path style="fill:none;stroke-width:1.2;stroke-linecap:butt;stroke-linejoin:miter;stroke:rgb(0%,0%,0%);stroke-opacity:1;stroke-miterlimit:10;" d="M 193.675781 166.1875 L 221.984375 154.570312 "/>
<path style="fill:none;stroke-width:1.2;stroke-linecap:butt;stroke-linejoin:miter;stroke:rgb(0%,0%,100%);stroke-opacity:1;stroke-miterlimit:10;" d="M 189.59375 197.453125 L 188.15625 178.382812 "/>
<path style="fill:none;stroke-width:1.2;stroke-linecap:butt;stroke-linejoin:miter;stroke:rgb(0%,0%,0%);stroke-opacity:1;stroke-miterlimit:10;" d="M 188.15625 178.382812 L 186.71875 159.3125 "/>
<path style="fill:none;stroke-width:1.2;stroke-linecap:butt;stroke-linejoin:miter;stroke:rgb(0%,0%,0%);stroke-opacity:1;stroke-miterlimit:10;" d="M 222.105469 144.792969 L 234.480469 159.375 "/>
<path style="fill:none;stroke-width:1.2;stroke-linecap:butt;stroke-linejoin:miter;stroke:rgb(0%,0%,100%);stroke-opacity:1;stroke-miterlimit:10;" d="M 234.480469 159.375 L 246.851562 173.957031 "/>
<path style="fill:none;stroke-width:1.2;stroke-linecap:butt;stroke-linejoin:miter;stroke:rgb(0%,0%,100%);stroke-opacity:1;stroke-miterlimit:10;" d="M 246.851562 173.957031 L 236.804688 190.230469 "/>
<path style="fill:none;stroke-width:1.2;stroke-linecap:butt;stroke-linejoin:miter;stroke:rgb(0%,0%,0%);stroke-opacity:1;stroke-miterlimit:10;" d="M 236.804688 190.230469 L 226.757812 206.507812 "/>
<path style="fill:none;stroke-width:1.2;stroke-linecap:butt;stroke-linejoin:miter;stroke:rgb(0%,0%,100%);stroke-opacity:1;stroke-miterlimit:10;" d="M 237.183594 172.484375 L 229.148438 185.503906 "/>
<path style="fill:none;stroke-width:1.2;stroke-linecap:butt;stroke-linejoin:miter;stroke:rgb(0%,0%,0%);stroke-opacity:1;stroke-miterlimit:10;" d="M 229.148438 185.503906 L 221.109375 198.523438 "/>
<path style=" stroke:none;fill-rule:nonzero;fill:rgb(100%,100%,100%);fill-opacity:1;" d="M 240.851562 164.457031 L 252.851562 164.457031 L 252.851562 183.457031 L 240.851562 183.457031 Z M 240.851562 164.457031 "/>
<g style="fill:rgb(0%,0%,100%);fill-opacity:1;">
  <use xlink:href="#glyph0-1" x="240.851562" y="179.308594"/>
</g>
<path style="fill:none;stroke-width:1.2;stroke-linecap:butt;stroke-linejoin:miter;stroke:rgb(0%,0%,0%);stroke-opacity:1;stroke-miterlimit:10;" d="M 226.757812 206.507812 L 208.175781 201.980469 "/>
<path style="fill:none;stroke-width:1.2;stroke-linecap:butt;stroke-linejoin:miter;stroke:rgb(0%,0%,100%);stroke-opacity:1;stroke-miterlimit:10;" d="M 208.175781 201.980469 L 189.59375 197.453125 "/>
<path style=" stroke:none;fill-rule:nonzero;fill:rgb(100%,100%,100%);fill-opacity:1;" d="M 177.59375 187.953125 L 201.59375 187.953125 L 201.59375 206.953125 L 177.59375 206.953125 Z M 177.59375 187.953125 "/>
<g style="fill:rgb(0%,0%,100%);fill-opacity:1;">
  <use xlink:href="#glyph0-1" x="177.59375" y="202.804688"/>
  <use xlink:href="#glyph0-2" x="189.5625" y="202.804688"/>
</g>
<path style=" stroke:none;fill-rule:nonzero;fill:rgb(100%,100%,100%);fill-opacity:1;" d="M 130.59375 102.265625 L 160.59375 102.265625 L 160.59375 121.265625 L 130.59375 121.265625 Z M 130.59375 102.265625 "/>
<g style="fill:rgb(50%,30%,10%);fill-opacity:1;">
  <use xlink:href="#glyph0-3" x="130.59375" y="117.117188"/>
  <use xlink:href="#glyph0-4" x="141.570312" y="117.117188"/>
  <use xlink:href="#glyph0-2" x="148.148438" y="117.117188"/>
</g>
<path style=" stroke:none;fill-rule:nonzero;fill:rgb(100%,100%,100%);fill-opacity:1;" d="M 130.59375 76.765625 L 160.59375 76.765625 L 160.59375 95.765625 L 130.59375 95.765625 Z M 130.59375 76.765625 "/>
<g style="fill:rgb(50%,30%,10%);fill-opacity:1;">
  <use xlink:href="#glyph0-3" x="130.59375" y="91.617188"/>
  <use xlink:href="#glyph0-4" x="141.570312" y="91.617188"/>
  <use xlink:href="#glyph0-2" x="148.148438" y="91.617188"/>
</g>
</g>
</svg>

<svg xmlns="http://www.w3.org/2000/svg" xmlns:xlink="http://www.w3.org/1999/xlink" width="300pt" height="300pt" viewBox="0 0 300 300"><defs><symbol overflow="visible"><path d="M.797 2.828v-14.11h8V2.83zm.906-.89h6.203v-12.33H1.703zm0 0"/></symbol><symbol overflow="visible" id="a"><path d="M1.578-11.672h2.125l5.172 9.766v-9.766h1.53V0H8.282L3.11-9.766V0H1.577zm0 0"/></symbol><symbol overflow="visible" id="b"><path d="M1.578-11.672h1.578v4.78H8.89v-4.78h1.58V0H8.89v-5.563H3.157V0H1.578zm0 0"/></symbol><symbol overflow="visible" id="c"><path d="M3.156-5.578v4.28h2.531c.844 0 1.47-.175 1.875-.53.415-.352.625-.89.625-1.61 0-.726-.21-1.265-.624-1.61-.407-.35-1.032-.53-1.875-.53zm0-4.797v3.516h2.328c.77 0 1.344-.14 1.72-.42.382-.29.577-.736.577-1.33 0-.593-.194-1.035-.577-1.328-.375-.29-.95-.437-1.72-.437zm-1.578-1.297h4.03c1.197 0 2.12.25 2.767.75.656.5.984 1.215.984 2.14 0 .712-.17 1.278-.5 1.704-.337.418-.825.68-1.47.78.782.17 1.383.517 1.813 1.048.426.53.64 1.195.64 1.984 0 1.043-.355 1.852-1.062 2.422C8.07-.28 7.067 0 5.767 0H1.578zm0 0"/></symbol><symbol overflow="visible" id="d"><path d="M6.578-7.406c-.156-.094-.336-.16-.53-.203-.19-.05-.4-.077-.626-.077-.813 0-1.438.265-1.875.796-.43.53-.64 1.292-.64 2.28V0H1.452v-8.75h1.453v1.36c.3-.532.692-.926 1.172-1.188.488-.258 1.078-.39 1.766-.39.1 0 .21.01.328.03.125.012.258.028.406.047zm0 0"/></symbol></defs><g><path fill="#fff" d="M0 0h300v300H0z"/><path d="M119.37 195.594l-33.675 18.14M111.734 189.484l-26.94 14.512M120.496 157.36l-1.125 38.234M85.695 213.734l-16.273-10.047" stroke-width="1.2" stroke="#000" stroke-miterlimit="10" fill="none"/><path d="M69.422 203.688L53.148 193.64M53.148 193.64l.563-19.117" stroke-width="1.2" stroke="#00f" stroke-miterlimit="10" fill="none"/><path d="M53.71 174.523l.567-19.117" stroke-width="1.2" stroke="#000" stroke-miterlimit="10" fill="none"/><path d="M62.258 190.082l.45-15.293" stroke-width="1.2" stroke="#00f" stroke-miterlimit="10" fill="none"/><path d="M62.707 174.79l.453-15.294" stroke-width="1.2" stroke="#000" stroke-miterlimit="10" fill="none"/><path d="M47.148 184.14h12v19h-12zm0 0" fill="#fff"/><use xlink:href="#a" x="47.148" y="198.992" fill="#00f"/><path d="M54.277 155.406l33.672-18.14M87.95 137.266l32.546 20.093M86.477 146.934l26.04 16.074M120.496 157.36l33.676-18.14M154.172 139.22l32.547 20.093M186.72 159.313l35.385-14.52M193.676 166.188l28.308-11.618" stroke-width="1.2" stroke="#000" stroke-miterlimit="10" fill="none"/><path d="M189.594 197.453l-1.438-19.07" stroke-width="1.2" stroke="#00f" stroke-miterlimit="10" fill="none"/><path d="M188.156 178.383l-1.437-19.07M222.105 144.793l12.375 14.582" stroke-width="1.2" stroke="#000" stroke-miterlimit="10" fill="none"/><path d="M234.48 159.375l12.372 14.582M246.852 173.957l-10.047 16.273" stroke-width="1.2" stroke="#00f" stroke-miterlimit="10" fill="none"/><path d="M236.805 190.23l-10.047 16.278" stroke-width="1.2" stroke="#000" stroke-miterlimit="10" fill="none"/><path d="M237.184 172.484l-8.036 13.02" stroke-width="1.2" stroke="#00f" stroke-miterlimit="10" fill="none"/><path d="M229.148 185.504l-8.04 13.02" stroke-width="1.2" stroke="#000" stroke-miterlimit="10" fill="none"/><path d="M240.852 164.457h12v19h-12zm0 0" fill="#fff"/><use xlink:href="#a" x="240.852" y="179.309" fill="#00f"/><path d="M226.758 206.508l-18.582-4.528" stroke-width="1.2" stroke="#000" stroke-miterlimit="10" fill="none"/><path d="M208.176 201.98l-18.582-4.527" stroke-width="1.2" stroke="#00f" stroke-miterlimit="10" fill="none"/><path d="M177.594 187.953h24v19h-24zm0 0" fill="#fff"/><g fill="#00f"><use xlink:href="#a" x="177.594" y="202.805"/><use xlink:href="#b" x="189.563" y="202.805"/></g><path d="M130.594 102.266h30v19h-30zm0 0" fill="#fff"/><g fill="#7f4d1a"><use xlink:href="#c" x="130.594" y="117.117"/><use xlink:href="#d" x="141.57" y="117.117"/><use xlink:href="#b" x="148.148" y="117.117"/></g><path d="M130.594 76.766h30v19h-30zm0 0" fill="#fff"/><g fill="#7f4d1a"><use xlink:href="#c" x="130.594" y="91.617"/><use xlink:href="#d" x="141.57" y="91.617"/><use xlink:href="#b" x="148.148" y="91.617"/></g></g></svg>
